!!!COM: Felix Mendelssohn
!!!CNT: Deutsch
!!!TXO: Deutsch
!!!OTL: Die Liebende schreibt
!!!LYR: Goethe
!!!OPS: Op. 86
!!!ONM: No. 3
!!!ENC: Daniel Alt & Leigh VanHandel
!!!YOR: Sa2mmtliche Lieder fu2r eine Singstimme 
!!!YOR: Neu revidirt von Dr. L. Benda, Ausgabe fu2r mittlere Stimme
!!!YOR: Braunschweig. Henry Litolff's Verlag. Boston and New York: Arthur P. Schmidt.
!!!ODT: 1831/
**kern	**silbe
*staff1	*
=1-	=1
*clefG2	*
*k[f#c#]	*
*met(C)	*
*M4/4	*
2r	.
4r	.
{4d	{Ein
=2	=2
8.f#	Blick
16f#	von
8f#	dei-
8g	-nen
8a	Au-
8a	-gen
8.b	in
16a	die
=3	=3
4a	mei-
4g}	-nen,}
4r	.
{4g	{ein
=4	=4
8.b	Kuss
16b	von
8b	dei-
8ccn	-nem
8dd	Mund
8dd	auf
8.ee	mei-
16dd	-nem
=5	=5
4dd	Mun-
4cc#}	-de,}
8r	.
{8cc#	{wer
8dd	dav-
8b	-on
=6	=6
4.a	hat,
8a	wie-
8a	ich,
16r	.
16a	ge-
8b	-wis-
8g	-se
=7	=7
4g	Kun-
8f#	-de,
8r	.
4a	mag
8g	dem
8f#	was
=8	=8
8f#	an-
8e	-dres
8e	wohl
8e	er
8b	freu-
8a	|
8g	-lich
8f#	|
=9	=9
4.a	schei-
8f#	|
4e}	-nen?}
4r	.
=10	=10
8r	.
{8e	{Ent-
8.a	-fernt
16e	von
4fn	dir,
8r	.
8f	ent-
=11	=11
8a	-frem-
8e	-det
8.fn	von
16g	den
4g	Mei-
8f}	-nen,}
8r	.
=12	=12
{4a#	{fu2hr’
4an	ich
4g	stets
8g	die
8g	Ge-
=13	=13
8.ccn	-dank-
16cc	-en
8cc	in
8g	die
4a#	Run-
4an}	-de,}
=14	=14
4r	.
{4fn	{und
8.a	im-
16a	-mer
8a	tref-
8a#	-fen
=15	=15
8ccn	sie
8cc	auf
8.dd	je-
16cc	-ne
4cc	Stun-
4a#}	-de,}
=16	=16
4r	.
{4fn	{die
[2ffn	ein-
=17	=17
2.ff]	|
4dd	-zi-
=18	=18
4ccn	-ge;
4a#	da
4an	fang’
4g	ich
=19	=19
4ee	an
4dd	zu
[2ccn	wei-
=20	=20
2.cc]	|
[4a#	|
=21	=21
4a#]	|
4an	|
4g	|
4fn}	-nen.}
=22	=22
1r	.
=23	=23
2r	.
8r	.
{8ccn	Die
[4cc	Thra2-
=24	=24
8cc]	|
8ccn	-ne
4.cc	trock-
8a	-net
[4cc	wie-
=25	=25
8cc]	|
8g	-der
8a	un-
8a#	-ver-
4a#	-se-
8an	-hens:
16r	.
16fn	er
=26	=26
4fn	liebt
4f	ja,
8r	.
4f	denk’
8f	ich,
=27	=27
16a	her
16g	|
8g	in
8g	die-
8g	-se
4g	Stil-
4g#}	-le,}
=28	=28
8r	.
{8a	{und
8a	soll-
8a	-test
8a	du
8d	nicht
8f#	in
8a	die
=29	=29
4.ccn	Fer-
8cc	-ne
8.cc	rei-
16f#	|
4f#}	chen?}
=30	=30
1r	.
=31	=31
1r	.
=32	=32
8r	.
{8d	{Ver-
8f#	-nimm
8g	das
4.a	Lis-
8a	-peln
=33	=33
8a	die-
8a	-ses
8.b	Lie-
16a	-be-
4a	-we-
4g}	-hens;}
=34	=34
8r	.
{8g	mein
8b	ein-
8ccn	-zig
4.dd	Glu2ck
8dd	auf
=35	=35
8ffn	Er-
8ee	-den
8dd	ist
8ee	dein
4dd	Wil-
8cc#	-le,
8cc#	dein
=36	=36
8ee	freund-
8cc#	lich-
8.b	-er,
16a	zu
[2a	mir;
=37	=37
8a]}	|}
8r	.
4r	.
8r	.
{8f#	{gieb
8a	mie
8g	ein
=38	=38
2f#	Zei-
2e}	-chen,}
=39	=39
1r	.
=40	=40
4r	.
{4a#	{gieb
4b	mir
4cc#	ein
=41	=41
2.dd	Zei-
12ff#	|
12ee	|
12dd	|
=42	=42
[2dd	-chen,
8dd]	|
8b	|
8g	gieb
8e	|
=43	=43
2g	mir
4r	.
4c#	ein
=44	=44
4e	Zei-
4d}	-chen!}
2r	.
==	==
*-	*-
